!!!COM: Frescobaldi, Girolamo
!!!CDT: 1583///-1643
!!!ONM: No. 24
!!!OTL: No. 24: Canzon Terza &agrave; 3. Due Bassi e Canto
!!!OPR: Canzoni da sonare a una, due, tre et quattro, libro primo
!!!PPP: Venezia
!!!PDT: 1634
!!!URL: http://icking-music-archive.org/ByComposer/Frescobaldi.html
!!!ONB: Andrea Friggi, ed.
**kern	**kern	**kern	**kern
!Basso ad Organo	!Basso Secondo	!Basso Primo	!Canto Primo
*staff4	*staff3	*staff2	*staff1
*Icello	*Icello	*Icello	*Ivioln
*clefC1	*clefF4	*clefF4	*clefG2
*k[]	*k[]	*k[]	*k[]
*met(C)	*met(C)	*met(C)	*met(C)
*M4/4	*M4/4	*M4/4	*M4/4
*MM120	*MM120	*MM120	*MM120
=1-	=1-	=1-	=1-
2cc\	1r	1r	2cc\
4a\	.	.	4a/
4dd\	.	.	4dd\
=2	=2	=2	=2
4cc\	1r	1r	4cc\
2a\	.	.	8a/L
.	.	.	8b/J
.	.	.	4cc\
4d/	.	.	4dd\
=3	=3	=3	=3
4e/	1r	1r	4b\
4c/	.	.	4ee\
2g\	.	.	2dd\
=4	=4	=4	=4
*clefF4	*	*	*
2C/	2C/	1r	2cc\
4AA/	4AA/	.	2r
4D\	4D\	.	.
=5	=5	=5	=5
4C/	4C/	1r	4r
8AA/L	8AA/L	.	8cc\L
8BB/J	8BB/J	.	8dd\J
4C/	4C/	.	4ee\
4D\	4D\	.	8ff\L
.	.	.	8ee\J
=6	=6	=6	=6
4BB/	4BB/	1r	4dd\
4E\	4E\	.	2cc\
2D\	2D\	.	.
.	.	.	4b\
=7	=7	=7	=7
2C/	2C/	4r	1cc
.	.	8C/L	.
.	.	8D/J	.
4E\	2r	4E\	.
8F\L	.	8F\L	.
8E\J	.	8E\J	.
=8	=8	=8	=8
4D\	2r	4D\	1r
4C/	.	4C/	.
2G\	4r	2GG/	.
.	4G\	.	.
=9	=9	=9	=9
1C	4E\	1C	2r
.	4A\	.	.
.	4G\	.	4r
.	8E\L	.	8g/L
.	8F\J	.	8a/J
=10	=10	=10	=10
4G\	4G\	1r	4b\
4A\	4A\	.	8cc\L
.	.	.	8b\J
4F\	4F\	.	4a/
4B-\	4B-\	.	[4dd\
=11	=11	=11	=11
2A\	2A\	1r	4dd\]
.	.	.	4cc#\
2D\	2D\	.	4.dd\
.	.	.	8ccn\
=12	=12	=12	=12
4E\	4E\	1r	4b\
4C/	4C/	.	8cc\L
.	.	.	8b\J
2D\	2D\	.	2a/
=13	=13	=13	=13
2GG/	2GG/	2G\	2b\
4E\	2r	4E\	2r
4A\	.	4A\	.
=14	=14	=14	=14
4G\	1r	4G\	2r
8E\L	.	8E\L	.
8F\J	.	8F\J	.
4G\	.	4G\	4r
4A\	.	4A\	4cc\
=15	=15	=15	=15
4.F\	1r	4.F\	4a/
.	.	.	4dd\
8G\	.	8G\	.
4E\	.	4E\	4cc\
8F\L	.	8F\L	8dd\L
8E\J	.	8E\J	8ee\J
=16	=16	=16	=16
2D\	2r	2D\	4ff\
.	.	.	4dd\
2C/	4r	2C/	4ee\
.	8C/L	.	[4cc\
.	8D/J	.	.
=17	=17	=17	=17
4E\	4E\	1r	4cc\]
8F\L	8F\L	.	4a/
8E\J	8E\J	.	.
4D\	4D\	.	4dd\
4C/	4C/	.	4ee\
=18	=18	=18	=18
2GG/	1GG	4r	2dd\
.	.	8G\L	.
.	.	8A\J	.
4BB/	.	4B\	2g/
8C/L	.	8c\L	.
8BB/J	.	8B\J	.
=19	=19	=19	=19
4AA/	1r	4A\	2r
4GG/	.	4G\	.
2D\	.	2D\	4r
.	.	.	4dd\
=20	=20	=20	=20
1GG	4r	1GG	4b\
.	8G\L	.	4ee\
.	8A\J	.	.
.	4B\	.	[2dd\
.	8c\L	.	.
.	8B\J	.	.
=21	=21	=21	=21
4AA/	4A\	1r	4dd\]
4E\	4E\	.	2cc\
4F\	4F\	.	.
4G\	4G\	.	4b\
=22	=22	=22	=22
2C/	2C/	2C/	2cc\
4AA/	2r	4AA/	2r
4D\	.	4D\	.
=23	=23	=23	=23
4C/	1r	4C/	1r
8AA/L	.	8AA/L	.
8BB/J	.	8BB/J	.
4C/	.	4C/	.
4D\	.	4D\	.
=24	=24	=24	=24
4BB/	2G\	4BB/	1r
4GG/	.	4GG/	.
2C/	4E\	2C/	.
.	4A\	.	.
=25	=25	=25	=25
4G\	4G\	2r	2r
8E\L	8E\L	.	.
8F\J	8F\J	.	.
4G\	[2G\	4r	4r
8GG/L	.	8GG/L	8b\L
8AA/J	.	8AA/J	8cc\J
=26	=26	=26	=26
4BB/	4G\]	4BB/	4dd\
8C/L	4E\	8C/L	4ee\
8BB/J	.	8BB/J	.
4AA/	4F#\	4AA/	4cc\
4GG/	4G\	4GG/	4b\
=27	=27	=27	=27
1D	1D	1D	4a/
.	.	.	8b\L
.	.	.	8cc\J
.	.	.	2dd\
=28	=28	=28	=28
1GG	1G	1GG	1b
=29	=29	=29	=29
2c\	4r	1r	4r
.	4c\	.	4ee\
4.B\	4.B\	.	4dd\
.	.	.	8dd\L
8B\	8B\	.	8ee\J
=30	=30	=30	=30
4.A\	4.A\	2r	8cc\L
.	.	.	8b\
.	.	.	8cc\
8F#\	8F#\	.	8dd\J
4G\	2G\	4r	2b\
4G\	.	4G\	.
=31	=31	=31	=31
4.F\	1r	4F\	2r
.	.	8F\L	.
8G\	.	8G\J	.
2E\	.	8E\L	4r
.	.	8D\	.
.	.	8E\	4g/
.	.	8F\J	.
=32	=32	=32	=32
2D\	1r	4.D\	8a/L
.	.	.	8g/
.	.	.	8a/
.	.	8D\	8b/J
2C/	.	2C/	8cc/L
.	.	.	8g/J
.	.	.	[4cc\
=33	=33	=33	=33
2GG/	4r	2G\	4cc\]
.	4GG/	.	4b\
4.AA/	8AA/L	2r	2a/
.	8GG/	.	.
.	8AA/	.	.
8BB/	8BB/J	.	.
=34	=34	=34	=34
2C/	8C\L	2r	2r
.	8D\	.	.
.	8E\	.	.
.	8F\J	.	.
2G\	4G\	4r	4r
.	4GG/	4G\	4gg\
=35	=35	=35	=35
2D\	4.D\	8A\L	4ff\
.	.	8G\	.
.	.	8A\	8ff\L
.	8D\	8B\J	8gg\J
2C/	2C/	8c\L	8.ee\L
.	.	8G\J	.
.	.	.	16dd\Jk
.	.	[4c\	8ee\L
.	.	.	8ff\J
=36	=36	=36	=36
2G\	2GG/	4c\]	4.dd\
.	.	4B\	.
.	.	.	8dd\
2A\	2r	4.A\	4cc\
.	.	.	4cc\
.	.	8A\	.
=37	=37	=37	=37
2G\	4r	2G\	8dd\L
.	.	.	8cc\
.	4G\	.	8dd\
.	.	.	8ee\J
4.F\	4F\	2r	8ff\L
.	.	.	8cc\J
.	8F\L	.	[4dd\
8G\	8G\J	.	.
=38	=38	=38	=38
4.E\	8E\L	1r	8dd\L]
.	8D\	.	8cc\J
.	8E\	.	2cc\
8F\	8F\J	.	.
2D\	4.D\	.	.
.	.	.	4b\
.	8D\	.	.
=39	=39	=39	=39
4C/	2C/	4r	2cc\
4c\	.	4C/	.
4.B-\	2r	4BB-/	4r
.	.	8BB-/L	4dd\
8c\	.	8C/J	.
=40	=40	=40	=40
4.A\	1r	8AA/L	4cc\
.	.	8GG/	.
.	.	8AA/	8cc\L
8B\	.	8BB/J	8dd\J
2G\	.	4.GG/	8b\L
.	.	.	8a\
.	.	.	8b\
.	.	8GG/	8cc\J
=41	=41	=41	=41
2F\	2r	8FF/L	4a/
.	.	8GG/	.
.	.	8AA/	4ff\
.	.	8BB/J	.
2C/	4r	2C/	4.ee\
.	4C/	.	.
.	.	.	8ff\
=42	=42	=42	=42
4.D\	8D\L	1r	4.dd\
.	8C\	.	.
.	8D\	.	.
8E\	8E\J	.	8cc\
4F\	4F\	.	8a\L
.	.	.	8b\
4A\	4A\	.	8cc\
.	.	.	8dd\J
=43	=43	=43	=43
4.G\	4.G\	1r	4b\
.	.	.	2ee\
8A\	8A\	.	.
2F\	4F\	.	.
.	4F\	.	4dd\
=44	=44	=44	=44
1E	1E	1r	1ee
=45	=45	=45	=45
4r	4r	4r	4r
4AA/	4AA/	4AA/	4cc\
2AA/	2A\	2AA/	2cc#\
=46	=46	=46	=46
2FF#/	4r	2FF#/	4r
.	4D\	.	4dd\
2GG/	2GG/	2GG/	[2b-\
=47	=47	=47	=47
1C	1C	2r	2b-\]
.	.	2C/	4a/
.	.	.	4g/
=48	=48	=48	=48
1FF	1FF	[1F	2.a/
.	.	.	4a/
=49	=49	=49	=49
[1GG	[1GG	2F\]	2b\
.	.	4E\	[2cc\
.	.	4F\	.
=50	=50	=50	=50
1GG]	2GG/]	1G	2cc\]
.	2GG/	.	2b\
=51	=51	=51	=51
*	*	*	*MM164
2C/	1C	2C/	2cc\
4.c\	.	4c\	2r
.	.	8c\L	.
8c\	.	8c\J	.
=52	=52	=52	=52
2B\	1r	4B\	4r
.	.	8B\L	4g/
.	.	8c\J	.
2A\	.	4.A\	8a\L
.	.	.	8b\
.	.	.	8cc\
.	.	8A\	8dd\J
=53	=53	=53	=53
2G\	4G\	2G\	4b\
.	8G\L	.	2ee\
.	8G\J	.	.
2F\	4F\	2r	.
.	8F\L	.	[4dd\
.	8G\J	.	.
=54	=54	=54	=54
2E\	4.E\	1r	8dd\L]
.	.	.	8cc\J
.	.	.	2cc\
.	8F\	.	.
2D\	4.D\	.	.
.	.	.	4b\
.	8E\	.	.
=55	=55	=55	=55
2C/	2C/	4r	2cc\
.	.	4C/	.
2D\	2r	8D\L	2r
.	.	8E\	.
.	.	8F\	.
.	.	8G\J	.
=56	=56	=56	=56
4E\	1r	4E\	4cc\
4A\	.	4A\	8cc\L
.	.	.	8cc\J
2G\	.	4.G\	4b\
.	.	.	8b\L
.	.	8G\	8cc\J
=57	=57	=57	=57
4F\	1r	4F\	4.a/
2F\	.	2F\	.
.	.	.	8b\
.	.	.	4.g/
4E\	.	4E\	.
.	.	.	8a/
=58	=58	=58	=58
2D\	4D\	2D\	8f/L
.	.	.	8g/
.	8D\L	.	8a/
.	8D\J	.	8b/J
4.C/	4C/	2r	2cc\
.	8C/L	.	.
8D\	8D/J	.	.
=59	=59	=59	=59
4.BB/	4.BB/	1r	4r
.	.	.	4g/
8C/	8BB/	.	.
2AA/	4AA/	.	8a\L
.	.	.	8b\
.	4AA/	.	8cc\
.	.	.	8dd\J
=60	=60	=60	=60
4GG/	2GG/	4G\	2b\
4G\	.	8G\L	.
.	.	8G\J	.
4.E\	2r	4E\	4r
.	.	8E\L	4cc\
8F\	.	8F\J	.
=61	=61	=61	=61
2D\	2r	4.D\	8dd\L
.	.	.	8ee\
.	.	.	8ff\
.	.	8D\	8dd\J
2C/	4c\	2C/	4.ee\
.	8c\L	.	.
.	8c\J	.	8ee\
=62	=62	=62	=62
2GG/	4B\	4r	2dd\
.	8B\L	4GG/	.
.	8c\J	.	.
2AA/	4.A\	8AA/L	2r
.	.	8BB/	.
.	.	8C/	.
.	8A\	8D/J	.
=63	=63	=63	=63
4BB/	2G\	4BB/	4gg\
4E\	.	4E\	8gg\L
.	.	.	8gg\J
2D\	2r	4.D\	4ff\
.	.	.	8ff\L
.	.	8D\	8gg\J
=64	=64	=64	=64
4C/	1r	4C/	4.ee\
2C/	.	2C/	.
.	.	.	8ff\
.	.	.	4.dd\
4BB/	.	4BB/	.
.	.	.	8dd\
=65	=65	=65	=65
2C/	4r	2C/	4ee\
.	4C/	.	4ee\
2D\	8D\L	2r	4.dd\
.	8E\	.	.
.	8F\	.	.
.	8G\J	.	8dd\
=66	=66	=66	=66
2E\	8E\L	1r	4cc\
.	8C\	.	.
.	8E\	.	2cc\
.	8F\J	.	.
2G\	2G\	.	.
.	.	.	4b\
=67	=67	=67	=67
1C	2C/	2r	1cc
.	2r	4C/	.
.	.	8C/L	.
.	.	8C/J	.
=68	=68	=68	=68
4BB/	4G\	4BB/	2r
4GG/	8G\L	4GG/	.
.	8G\J	.	.
2D\	8D\L	2D\	4dd\
.	8E\	.	.
.	8F\	.	8dd\L
.	8G\J	.	8dd\J
=69	=69	=69	=69
2AA/	4A\	2AA/	8cc\L
.	.	.	8a\J
.	4A\	.	8cc\L
.	.	.	16dd\L
.	.	.	16cc\JJ
2BB/	2G\	2BB/	8b\L
.	.	.	8cc\
.	.	.	8dd\
.	.	.	8ee\J
=70	=70	=70	=70
1D	1D	2.D\	8ff#\L
.	.	.	8dd\
.	.	.	8cc\
.	.	.	8b\J
.	.	.	2a/
.	.	4D\	.
=71	=71	=71	=71
1GG	1G	1GG	1b
=72	=72	=72	=72
1G	1r	2r	1r
.	.	2G\	.
=73	=73	=73	=73
2.E\	1r	2.E\	1r
4E\	.	4E\	.
=74	=74	=74	=74
1F#	1r	1F#	1r
=75	=75	=75	=75
1G	1r	1G	1r
=76	=76	=76	=76
1C	2r	1C	1r
.	2C/	.	.
=77	=77	=77	=77
2.BB/	2.BB/	1r	1r
4BB/	4BB/	.	.
=78	=78	=78	=78
2C/	2C/	1r	1r
2GG/	2GG/	.	.
=79	=79	=79	=79
1AA	1AA	1r	1r
=80	=80	=80	=80
2.E\	2.E\	1r	2r
.	.	.	[2gg\
4F\	4F\	.	.
=81	=81	=81	=81
2G\	2G\	1r	2gg\]
2A\	2A\	.	2ff#\
=82	=82	=82	=82
1G	1G	1r	2gg\
.	.	.	2dd\
=83	=83	=83	=83
1C	1r	1r	2ee\
.	.	.	2ee\
=84	=84	=84	=84
2D\	1r	1r	4ff\
.	.	.	8gg\L
.	.	.	8ff\J
2E\	.	.	[2ee\
=85	=85	=85	=85
1F	1r	1r	2ee\]
.	.	.	2dd\
=86	=86	=86	=86
1E	1r	1r	1ee
=87	=87	=87	=87
*clefC4	*	*	*MM144
2c\	1r	2c\	8r
.	.	.	8cc\L
.	.	.	8ee\
.	.	.	8gg\J
4.B\	.	4.B\	8dd\L
.	.	.	16gg\L
.	.	.	16ff\JJ
.	.	.	8ee\L
8B\	.	8B\	8dd\J
=88	=88	=88	=88
4c\	2r	4c\	8ee\L
.	.	.	16ff\L
.	.	.	16ee\JJ
4A\	.	4A\	8dd\L
.	.	.	8cc\J
2G/	4GG/	2G\	4dd\
.	8BB/L	.	4dd\
.	8D/J	.	.
=89	=89	=89	=89
2A\	8AA\L	1r	4.cc#\
.	16A\L	.	.
.	16G\JJ	.	.
.	8F\L	.	.
.	8E\J	.	8cc#\
2D/	8D\L	.	4dd\
.	8F\	.	.
.	8E\	.	4b\
.	8D\J	.	.
=90	=90	=90	=90
*clefF4	*	*	*
2C/	2C/	2C/	2cc\
4.BB/	2r	4.BB/	8r
.	.	.	8g\L
.	.	.	8b\
8BB/	.	8BB/	8dd\J
=91	=91	=91	=91
2C/	1r	4C/	8g\L
.	.	.	16gg\L
.	.	.	16ff\JJ
.	.	4C/	8ee\L
.	.	.	8ee\J
2D\	.	2D\	8dd\L
.	.	.	8cc\
.	.	.	8b\
.	.	.	8a\J
=92	=92	=92	=92
4E\	2r	4E\	8g/L
.	.	.	16a/L
.	.	.	16b/JJ
4C/	.	4C/	8cc\L
.	.	.	8cc\J
2G\	4GG/	2G\	2b\
.	8BB/L	.	.
.	8D/J	.	.
=93	=93	=93	=93
2GG/	8GG/L	2r	1r
.	16G/L	.	.
.	16F/JJ	.	.
.	8E\L	.	.
.	8D\J	.	.
[2C/	2C/	4C/	.
.	.	8E\L	.
.	.	8G\J	.
=94	=94	=94	=94
4C/]	1r	8C\L	2r
.	.	16c\L	.
.	.	16B\JJ	.
4C/	.	8A\L	.
.	.	8G\J	.
4AA/	.	8A\L	2cc\
.	.	16B-\L	.
.	.	16A\JJ	.
4FF/	.	8G\L	.
.	.	8F\J	.
=95	=95	=95	=95
2GG/	2G\	2G\	4.b\
.	.	.	8b\
2C/	4.E\	2C/	4cc\
.	.	.	4g/
.	8E\	.	.
=96	=96	=96	=96
4F\	4F\	2r	4a/
4D\	4D\	.	4ff\
2C/	2C/	4C/	4.ee\
.	.	8E\L	.
.	.	8G\J	8ee\
=97	=97	=97	=97
4D\	1r	8D/L	4ff\
.	.	16D/L	.
.	.	16C/JJ	.
4G\	.	8BB/L	4dd\
.	.	8BB/J	.
2C/	.	2C/	8cc\L
.	.	.	8ee\
.	.	.	8dd\
.	.	.	8cc\J
=98	=98	=98	=98
2G\	1r	4r	4dd\
.	.	4G\	4b\
4.F#\	.	4.F#\	8a\L
.	.	.	16dd\L
.	.	.	16cc\JJ
.	.	.	8b/L
8F#\	.	8F#\	8a/J
=99	=99	=99	=99
4G\	2r	4G\	2b\
4E\	.	4E\	.
[2D\	4D\	[2D\	2r
.	8F#\L	.	.
.	8A\J	.	.
=100	=100	=100	=100
4D\]	8D/L	4D\]	4r
.	16D/L	.	.
.	16C/JJ	.	.
8BB/L	8BB/L	4D\	4dd\
8AA/J	8AA/J	.	.
2GG/	8GG/L	2G\	4.b\
.	8BB/	.	.
.	8AA/	.	.
.	8GG/J	.	8b\
=101	=101	=101	=101
2AA/	2AA/	1r	4cc\
.	.	.	4a/
2E\	2E\	.	8g/L
.	.	.	8a/
.	.	.	8b/
.	.	.	8cc/J
=102	=102	=102	=102
2D\	2D\	4r	2dd\
.	.	4D\	.
2BB/	4r	4.BB/	8r
.	.	.	8g\L
.	4G\	.	8b\
.	.	8BB/	8dd\J
=103	=103	=103	=103
4.C/	4E\	4.C/	8g\L
.	.	.	16gg\L
.	.	.	16ff\JJ
.	4C/	.	8ee\L
8AA/	.	8AA/	8cc\J
2GG/	2G\	2GG/	2dd\
=104	=104	=104	=104
0C	0C	0C	0ee
==	==	==	==
*-	*-	*-	*-
!!!ENC: Craig Stuart Sapp
!!!END: 2004/12/14/
